X:82
T:Brig o' Tilt, The
R:Reel
B:The Athole Collection
M:C|
L:1/8
K:D
A|FD F/G/A d2 AG|FD F/G/A GEEG|FD F/G/A d2 AB|dfeg fdd:|
g|fdad bdad|fdaf geeg|1 fdad bdad|geag fdd:|2 fadf gbeg|ABde fdd||

